Sources/Montage/Asset/Icon.xcassets/bellPlus.imageset/bellPlus.svg

<svg viewBox="0 0 24 24" xmlns="http://www.w3.org/2000/svg">
<path fill-rule="evenodd" d="M9.09945 20.1h5.80005v1.8H9.09945v-1.8ZM18.8999 9.4998v-1.7h1.6v1.7h1.7v1.6h-1.7v1.7h-1.6v-1.7h-1.7v-1.6h1.7Z" clip-rule="evenodd"/>
<path fill-rule="evenodd" d="M6.6493 10.2501c0-2.08486.52726-3.66711 1.41213-4.71315.86751-1.02553 2.16307-1.63685 3.93787-1.63685 1.7748 0 3.0704.61132 3.9379 1.63685.3444.40715.6346.89554.8607 1.46319h1.9054c-.3044-1.00033-.7664-1.88636-1.3919-2.62571-1.2575-1.48654-3.0868-2.27433-5.3121-2.27433-2.22523 0-4.05463.78779-5.31212 2.27433C5.44704 5.84045 4.8493 7.88322 4.8493 10.2501v.75c0 2.4652-.68323 3.9248-1.65635 4.8682-.38155.3698-.42115.8816-.28476 1.2582.1387.3829.5188.7736 1.09067.7736H19.9998c.5718 0 .9519-.3907 1.0906-.7736.1364-.3766.0968-.8884-.2847-1.2582-.4876-.4726-.9023-1.0748-1.1949-1.8681h-1.8895c.2224.7967.5411 1.4929.9467 2.0999H5.33059c.85057-1.2728 1.31872-2.9372 1.31872-5.1l-.00001-.75Z" clip-rule="evenodd"/>
</svg>

<svg viewBox="0 0 24 24" xmlns="http://www.w3.org/2000/svg">
<path fill-rule="evenodd" clip-rule="evenodd" d="M9.09951 20.1H14.8995V21.9H9.09951V20.1Z"/>
<path fill-rule="evenodd" clip-rule="evenodd" d="M18.9 9.4998V7.7998H20.5V9.4998H22.2V11.0998H20.5V12.7998H18.9V11.0998H17.2V9.4998H18.9Z"/>
<path fill-rule="evenodd" clip-rule="evenodd" d="M6.64937 10.2501C6.64937 8.16524 7.17662 6.58299 8.06149 5.53695C8.929 4.51142 10.2246 3.9001 11.9994 3.9001C13.7741 3.9001 15.0697 4.51142 15.9372 5.53695C16.2817 5.9441 16.5719 6.43249 16.798 7.00014H18.7033C18.399 5.99981 17.9369 5.11378 17.3115 4.37443C16.054 2.88789 14.2246 2.1001 11.9994 2.1001C9.77413 2.1001 7.94473 2.88789 6.68724 4.37443C5.44711 5.84045 4.84936 7.88322 4.84936 10.2501L4.84937 11.0001C4.84937 13.4653 4.16613 14.9249 3.19301 15.8683C2.81146 16.2381 2.77186 16.7499 2.90825 17.1265C3.04695 17.5094 3.42705 17.9001 3.99892 17.9001H19.9998C20.5717 17.9001 20.9518 17.5094 21.0905 17.1265C21.2269 16.7499 21.1873 16.2381 20.8057 15.8683C20.3182 15.3957 19.9034 14.7935 19.6109 14.0002H17.7214C17.9437 14.7969 18.2624 15.4931 18.6681 16.1001H5.33065C6.18123 14.8273 6.64937 13.1629 6.64937 11.0001L6.64937 10.2501Z"/>
</svg>
